static/images/pieces/shogi/cz/0NY.svg

<svg height="31.358999mm" viewBox="0 0 27.116999 31.358999" width="27.116999mm" xmlns="http://www.w3.org/2000/svg" xmlns:xlink="http://www.w3.org/1999/xlink"><linearGradient id="a" gradientUnits="userSpaceOnUse" x1="10.41356" x2="10.41356" y1="7.19105" y2="-58.857422"><stop offset="0" stop-color="#ffdba6"/><stop offset="1" stop-color="#f2c478"/></linearGradient><clipPath id="b"><path d="m0 2834.646h2834.646v-2834.646h-2834.646z" transform="translate(-174.6885 -1471.5031)"/></clipPath><g clip-path="url(#b)" stroke-miterlimit="10" transform="matrix(.35277776 0 0 -.35277776 20.186225 6.566544)"><path d="m0 0-18.208 6.244c-.37.127-.78.127-1.15 0l-18.208-6.244c-.538-.184-.92-.612-.998-1.116l-8.551-55.301c-.13-.841.611-1.59 1.573-1.59h26.759 26.759c.962 0 1.703.749 1.573 1.59l-8.551 55.301c-.078.504-.46.932-.998 1.116" fill="url(#a)"/><path d="m-45.542969-58.857422c-1.403402 0-2.628281 1.171847-2.412109 2.570313l8.550781 55.30078087c.131052.8467983.759066 1.5162352 1.5625 1.79101563l18.207031 6.2441406c.552456.1896266 1.15067.1896266 1.703125 0l18.20703163-6.2441406c.80343407-.27478043 1.43144787-.94421733 1.56249997-1.79101563l8.5507814-55.30078087c.216172-1.398466-1.008707-2.570313-2.4121095-2.570313h-26.7597655zm0 1.701172h26.759766 26.7597655c.5205955 0 .7762497.325843.7324219.609375l-8.55078128 55.3007813c-.0249477.1612006-.1610289.348187-.43359375.4414062l-18.20898437 6.2441406c-.187544.064373-.410112.064373-.597656 0l-18.208985-6.2441406c-.272564-.0932192-.406693-.2802056-.43164-.4414062l-8.552735-55.3007813c-.04383-.283532.211827-.609375.732422-.609375z" fill="#4d3608"/></g><g fill="#f00"><path d="m13.096735 11.246249h-2.116668v-.727604h4.927867v.727604h-2.017449v2.381251h3.141928v.727605h-6.978388v-.727605h3.04271zm.132292-4.3656265.79375.3307293-.132292.1984376q.694532.8598962 1.587501 1.5213548.826823.6614585 1.951303 1.2567708-.231511.198438-.56224.661459-1.091407-.661459-2.017449-1.4221359-.826823-.6945315-1.422136-1.4552089-.727604.8929691-.992188 1.1575525-.496094.496094-1.157552 1.0252613-.396876.363802-1.091407.760677-.132292-.264583-.5291669-.661459.7606769-.4630207 1.0914069-.6945312.760677-.5622398 1.389063-1.2898442.463021-.5622399 1.091407-1.3890631z" stroke-width=".352777"/><path d="m-.63867187 0v22.677734h1.27734374v-22.677734z" stroke-miterlimit="10" transform="matrix(.35277776 0 0 -.35277776 13.56 24.68013)"/><path d="m-22.677734-.63867187v1.27734374h22.677734v-1.27734374z" stroke-miterlimit="10" transform="matrix(.35277776 0 0 -.35277776 17.560005 20.680133)"/><path d="m-.45117188-.45117188-8.01757812 8.01757808.9023438.9023438 8.01757808-8.01757812z" stroke-miterlimit="10" transform="matrix(.35277776 0 0 -.35277776 13.56 20.680133)"/><path d="m-7.5664062-8.46875-.9023438.9023438 8.01757812 8.01757808.90234376-.90234376z" stroke-miterlimit="10" transform="matrix(.35277776 0 0 -.35277776 16.388431 17.851684)"/></g></svg>

<?xml version="1.0" encoding="UTF-8" standalone="no"?>
<!-- Created with Inkscape (http://www.inkscape.org/) -->

<svg
   width="27.116999mm"
   height="31.358999mm"
   viewBox="0 0 27.116999 31.358999"
   version="1.1"
   id="svg1"
   inkscape:version="1.3.1 (91b66b0783, 2023-11-16)"
   sodipodi:docname="Template.svg"
   inkscape:export-filename="My Sets\FCZ Shogi\1KY.svg"
   inkscape:export-xdpi="96"
   inkscape:export-ydpi="96"
   xmlns:inkscape="http://www.inkscape.org/namespaces/inkscape"
   xmlns:sodipodi="http://sodipodi.sourceforge.net/DTD/sodipodi-0.dtd"
   xmlns:xlink="http://www.w3.org/1999/xlink"
   xmlns="http://www.w3.org/2000/svg"
   xmlns:svg="http://www.w3.org/2000/svg">
  <sodipodi:namedview
     id="namedview1"
     pagecolor="#ffffff"
     bordercolor="#999999"
     borderopacity="1"
     inkscape:showpageshadow="2"
     inkscape:pageopacity="0"
     inkscape:pagecheckerboard="0"
     inkscape:deskcolor="#d1d1d1"
     inkscape:document-units="mm"
     inkscape:zoom="2.0737236"
     inkscape:cx="31.103471"
     inkscape:cy="78.361457"
     inkscape:window-width="1920"
     inkscape:window-height="1009"
     inkscape:window-x="-8"
     inkscape:window-y="-8"
     inkscape:window-maximized="1"
     inkscape:current-layer="layer1" />
  <defs
     id="defs1">
    <linearGradient
       inkscape:collect="always"
       xlink:href="#linearGradient22"
       id="linearGradient2"
       x1="-121.22739"
       y1="132.82683"
       x2="-121.22739"
       y2="66.778358"
       gradientUnits="userSpaceOnUse"
       gradientTransform="translate(131.64095,-125.63578)" />
    <linearGradient
       id="linearGradient22"
       inkscape:collect="always">
      <stop
         style="stop-color:#ffdba6;stop-opacity:1;"
         offset="0"
         id="stop21" />
      <stop
         style="stop-color:#f2c478;stop-opacity:1;"
         offset="1"
         id="stop22" />
    </linearGradient>
    <clipPath
       clipPathUnits="userSpaceOnUse"
       id="clipPath1352">
      <path
         d="M 0,2834.646 H 2834.646 V 0 H 0 Z"
         transform="translate(-174.6885,-1471.5031)"
         id="path1352" />
    </clipPath>
  </defs>
  <g
     inkscape:label="Layer 1"
     inkscape:groupmode="layer"
     id="layer1">
    <g
       id="path1351"
       clip-path="url(#clipPath1352)"
       transform="matrix(0.35277776,0,0,-0.35277776,20.186225,6.5665435)">
      <path
         style="color:#000000;fill:url(#linearGradient2);stroke-miterlimit:10;-inkscape-stroke:none"
         d="m 0,0 -18.208,6.244 c -0.37,0.127 -0.78,0.127 -1.15,0 L -37.566,0 c -0.538,-0.184 -0.92,-0.612 -0.998,-1.116 l -8.551,-55.301 c -0.13,-0.841 0.611,-1.59 1.573,-1.59 h 26.759 26.759 c 0.962,0 1.703,0.749 1.573,1.59 L 0.998,-1.116 C 0.92,-0.612 0.538,-0.184 0,0"
         id="path5" />
      <path
         style="color:#000000;fill:#4d3608;stroke-miterlimit:10;-inkscape-stroke:none"
         d="m -45.542969,-58.857422 c -1.403402,0 -2.628281,1.171847 -2.412109,2.570313 l 8.550781,55.30078087 c 0.131052,0.8467983 0.759066,1.5162352 1.5625,1.79101563 l 18.207031,6.2441406 c 0.552456,0.1896266 1.15067,0.1896266 1.703125,0 L 0.27539063,0.8046875 C 1.0788247,0.52990707 1.7068385,-0.13952983 1.8378906,-0.98632813 L 10.388672,-56.287109 c 0.216172,-1.398466 -1.008707,-2.570313 -2.4121095,-2.570313 H -18.783203 Z m 0,1.701172 h 26.759766 26.7597655 c 0.5205955,0 0.7762497,0.325843 0.7324219,0.609375 L 0.15820312,-1.2460937 c -0.0249477,0.1612006 -0.1610289,0.348187 -0.43359375,0.4414062 L -18.484375,5.4394531 c -0.187544,0.064373 -0.410112,0.064373 -0.597656,0 l -18.208985,-6.2441406 c -0.272564,-0.0932192 -0.406693,-0.2802056 -0.43164,-0.4414062 l -8.552735,-55.3007813 c -0.04383,-0.283532 0.211827,-0.609375 0.732422,-0.609375 z"
         id="path6" />
    </g>
    <path
       style="fill:#ff0000;stroke-width:0.352777"
       d="m 13.096735,11.246249 h -2.116668 v -0.727604 h 4.927867 v 0.727604 H 13.890485 V 13.6275 h 3.141928 v 0.727605 H 10.054025 V 13.6275 h 3.04271 z m 0.132292,-4.3656265 0.79375,0.3307293 -0.132292,0.1984376 q 0.694532,0.8598962 1.587501,1.5213548 0.826823,0.6614585 1.951303,1.2567708 -0.231511,0.198438 -0.56224,0.661459 Q 15.775642,10.187915 14.8496,9.4272381 14.022777,8.7327066 13.427464,7.9720292 12.69986,8.8649983 12.435276,9.1295817 11.939182,9.6256757 11.277724,10.154843 10.880848,10.518645 10.186317,10.91552 10.054025,10.650937 9.6571501,10.254061 10.417827,9.7910403 10.748557,9.5595298 11.509234,8.99729 12.13762,8.2696856 12.600641,7.7074457 13.229027,6.8806225 Z"
       id="text1352"
       aria-label="仝" />
    <path
       style="color:#000000;fill:#ff0000;stroke-miterlimit:10;-inkscape-stroke:none"
       d="M -0.63867187,0 V 22.677734 H 0.63867187 V 0 Z"
       id="path1443"
       transform="matrix(0.35277776,0,0,-0.35277776,13.56,24.68013)" />
    <path
       style="color:#000000;fill:#ff0000;stroke-miterlimit:10;-inkscape-stroke:none"
       d="M -22.677734,-0.63867187 V 0.63867187 H 0 v -1.27734374 z"
       id="path1445"
       transform="matrix(0.35277776,0,0,-0.35277776,17.560005,20.680133)" />
    <path
       style="color:#000000;fill:#ff0000;stroke-miterlimit:10;-inkscape-stroke:none"
       d="M -0.45117188,-0.45117188 -8.46875,7.5664062 -7.5664062,8.46875 0.45117188,0.45117188 Z"
       id="path1447"
       transform="matrix(0.35277776,0,0,-0.35277776,13.56,20.680133)" />
    <path
       style="color:#000000;fill:#ff0000;stroke-miterlimit:10;-inkscape-stroke:none"
       d="M -7.5664062,-8.46875 -8.46875,-7.5664062 -0.45117188,0.45117188 0.45117188,-0.45117188 Z"
       id="path1449"
       transform="matrix(0.35277776,0,0,-0.35277776,16.388431,17.851684)" />
  </g>
</svg>
